svg/furkot/freepik/bird.svg

<svg viewBox="0 0 512 512" xmlns="http://www.w3.org/2000/svg"><path d="m511.632 34.584c-1.328-2.597-4.819-2.897-7.329-2.897-8.699 0-25.724 4.456-51.492 11.201l-8.418 2.2c-39.121 10.205-76.586 39.077-92.585 51.405-.208.162-.416.32-.62.478 14.591-19.051 53.199-77.852 49.988-84.678-.357-.758-1.057-1.194-1.919-1.194-3.522 0-7.44 3.872-14.553 10.9-10.132 10.012-27.089 26.769-57.669 46.908-19.627 12.924-40.802 31.398-59.482 47.697-23.981 20.925-46.634 40.689-57.334 40.689-2.007 0-3.495-.717-4.55-2.193-13.893-19.451-28.182-29.917-42.469-31.108-3.028-.252-6.157-.513-9.34-.513-11.981 0-25.532 3.304-43.396 27.266-3.972 5.328-42.465 9.723-70.571 12.932-14.924 1.704-27.814 3.176-34.662 4.579-3.734.765-5.378 1.168-5.222 2.713.152 1.495 1.583 1.62 5.966 1.62 5.306 0 14.861-.404 25.925-.872 16.885-.713 37.899-1.602 55.695-1.602 19.148 0 30.882 1.05 34.876 3.12 15.46 8.017 38.192 37.83 57.909 75.952 19.136 36.99 68.083 76.18 99.061 86.508 23.698 7.898 27.443 28.917 33.111 60.733 1.445 8.109 3.084 17.3 5.204 26.943 7.112 32.326 11.107 36.685 14.076 36.685 2.563 0 4.209-3.281 5.343-10.639.158-1.032.284-2.008.384-2.925 10.657 37.132 16.238 41.917 19.912 41.917.784 0 1.484-.342 1.97-.966 2.184-2.803.012-12.002-3.712-26.78-1.945-7.718-4.545-18.039-4.185-21.048 2.953 2.853 10.919 17.617 16.851 28.612 13.493 25.013 18.19 32.801 21.276 32.801.356 0 .7-.095 1-.275 3.233-1.941.152-10.77-8.81-33.654-4.717-12.047-9.593-24.498-10.124-29.879 2.724 2.028 9.45 10.695 14.496 17.2 10.463 13.483 15.331 19.392 18.048 19.391.596 0 1.132-.246 1.508-.688.599-.707.736-1.815.442-3.594-1.216-7.372-11.102-29.904-21.57-53.76-8.974-20.454-18.254-41.606-20.452-49.948-4.822-18.329-32.962-87.764-41.469-104.777-5.656-11.312 15.168-24.291 30.372-33.768 6.675-4.16 12.439-7.753 15.417-10.731 4.803-4.802 10.132-7.17 15.775-9.678 5.617-2.496 11.424-5.078 16.577-10.23 6.92-6.921 8.086-12.745 9.212-18.377.555-2.775 1.079-5.395 2.268-8.169 1.562-3.642 6.822-5.739 12.392-7.959 6.527-2.601 13.924-5.551 17.412-11.828 2.45-4.408 3.924-9.612 5.352-14.645 2.112-7.452 4.108-14.492 8.78-15.828 8.968-2.563 23.118-11.478 25.795-20.176l.445-1.463c2.606-8.579 8.706-28.667 23.858-49.644 5.077-7.036 6.645-11.212 5.237-13.964z"/></svg>

<svg xmlns="http://www.w3.org/2000/svg" viewBox="0 0 512 512"><path d="M511.632 34.584C510.304 31.987 506.813 31.687 504.303 31.687 495.604 31.687 478.579 36.143 452.811 42.888L444.393 45.088C405.272 55.293 367.807 84.165 351.808 96.493 351.6 96.655 351.392 96.813 351.188 96.971 365.779 77.92 404.387 19.119 401.176 12.293 400.819 11.535 400.119 11.099 399.257 11.099 395.735 11.099 391.817 14.971 384.704 21.999 374.572 32.011 357.615 48.768 327.035 68.907 307.408 81.831 286.233 100.305 267.553 116.604 243.572 137.529 220.919 157.293 210.219 157.293 208.212 157.293 206.724 156.576 205.669 155.1 191.776 135.649 177.487 125.183 163.2 123.992 160.172 123.74 157.043 123.479 153.86 123.479 141.879 123.479 128.328 126.783 110.464 150.745 106.492 156.073 67.999 160.468 39.893 163.677 24.969 165.381 12.079 166.853 5.231 168.256 1.497 169.021-0.147 169.424 0.009 170.969 0.161 172.464 1.592 172.589 5.975 172.589 11.281 172.589 20.836 172.185 31.9 171.717 48.785 171.004 69.799 170.115 87.595 170.115 106.743 170.115 118.477 171.165 122.471 173.235 137.931 181.252 160.663 211.065 180.38 249.187 199.516 286.177 248.463 325.367 279.441 335.695 303.139 343.593 306.884 364.612 312.552 396.428 313.997 404.537 315.636 413.728 317.756 423.371 324.868 455.697 328.863 460.056 331.832 460.056 334.395 460.056 336.041 456.775 337.175 449.417 337.333 448.385 337.459 447.409 337.559 446.492 348.216 483.624 353.797 488.409 357.471 488.409 358.255 488.409 358.955 488.067 359.441 487.443 361.625 484.64 359.453 475.441 355.729 460.663 353.784 452.945 351.184 442.624 351.544 439.615 354.497 442.468 362.463 457.232 368.395 468.227 381.888 493.24 386.585 501.028 389.671 501.028 390.027 501.028 390.371 500.933 390.671 500.753 393.904 498.812 390.823 489.983 381.861 467.099 377.144 455.052 372.268 442.601 371.737 437.22 374.461 439.248 381.187 447.915 386.233 454.42 396.696 467.903 401.564 473.812 404.281 473.811 404.877 473.811 405.413 473.565 405.789 473.123 406.388 472.416 406.525 471.308 406.231 469.529 405.015 462.157 395.129 439.625 384.661 415.769 375.687 395.315 366.407 374.163 364.209 365.821 359.387 347.492 331.247 278.057 322.74 261.044 317.084 249.732 337.908 236.753 353.112 227.276 359.787 223.116 365.551 219.523 368.529 216.545 373.332 211.743 378.661 209.375 384.304 206.867 389.921 204.371 395.728 201.789 400.881 196.637 407.801 189.716 408.967 183.892 410.093 178.26 410.648 175.485 411.172 172.865 412.361 170.091 413.923 166.449 419.183 164.352 424.753 162.132 431.28 159.531 438.677 156.581 442.165 150.304 444.615 145.896 446.089 140.692 447.517 135.659 449.629 128.207 451.625 121.167 456.297 119.831 465.265 117.268 479.415 108.353 482.092 99.655L482.537 98.192C485.143 89.613 491.243 69.525 506.395 48.548 511.472 41.512 513.04 37.336 511.632 34.584Z"/></svg>
